X:1
T:Angels Gathering the Elect
T:Angels Gathering the Elect
T:Barney E. Warren, pub.1888
T:Daniel S. Warner, pub.1888
T:PUBLIC DOMAIN
T:PUBLIC DOMAIN
C:Barney E. Warren, pub.1888
Z:Daniel S. Warner, pub.1888
Z:PUBLIC DOMAIN
%%score ( 1 2 ) ( 3 4 )
L:1/8
Q:1/4=90
M:3/4
K:Ab
V:1 treble nm="Treble"
V:2 treble 
V:3 bass nm="Bass"
V:4 bass 
V:1
 [CE]3/2 [CA]/ | [Ec]3 [Ec] (3(c B)[EA] | [Fd]2 [Fd]2 [Ec]3/2 [EB]/ | [FA]3 [FA] (3(B A)[DF] | %4
w: 1.~Might- y|mes- sen- gers * are|run- ning, Shout- ing,|“Flee from Ba- _ bel’s|
w: 2.~Pop- ish|reign of blood- _ y|ter- ror Passed a-|round— an aw- _ ful|
w: 3.~Hark! the|shouts of joy- _ ful|free- dom, ’Tis the|cap- tives com- _ ing|
w: 4.~Out of|So- dom’s des- _ o-|la- tion, Out of|mys- tic Ba- _ bel’s|
w: 5.~Heav- en’s|truth on earth * is|tell- ing, Light is|stream- ing from * a-|
 [CE]4 | [CE]3/2 [CE]/ | [EA]3 [EB] (3(c B)[EA] | [Ae]2 [Ac]2 [EG]3/2 [FA]/ | %8
w: doom!|For her|plagues are swift- _ ly|com- ing, Her de-|
w: night—|Now the|cloud- y day * of|er- ror Breaks a-|
w: home;|From each|name of sect * con-|fu- sion, Made com-|
w: fog;|In the|light of full * sal-|va- tion, We are|
w: bove;|Saints have|found in God * their|dwell- ing, Sweet- ly|
 [GB]3 [Ac] (3(([GB] [FA])) [EG] | [CA]4 ||[M:4/4]"^Refrain" [EB]3/2 [EA]/ | G4 G3/2 E/ A3/2 B/ | %12
w: struc- tion will * be|soon.”|Oh, be-|hold _ the an- gels|
w: way in eve- _ ning|light.|||
w: plete in Christ _ a-|lone.|||
w: com- ing home * to|God.|||
w: bound in per- _ fect|love.|||
 c4 c3/2 c/ c3/2 B/ | A4 A3/2 A/ d3/2 c/ | B6 A3/2 F/ | E4 E3/2 E/ A3/2 c/ | %16
w: fly- _ ing, Sound- ing|loud _ the trump of|God; Gath- ’ring|home _ the sons of|
w: ||||
w: ||||
w: ||||
w: ||||
 e4 e3/2 c/ [GB]3/2 [Gc]/ | d4 d3/2 d/ (3(e c)B | A6 |] %19
w: Zi- _ on, Sanc- ti-|fied _ in Je- _ sus’|blood.|
w: |||
w: |||
w: |||
w: |||
V:2
 x2 | z4 (3:2:2E2 z | x6 | z4 (3:2:2F2 z | x4 | x2 | z4 (3:2:2E2 z | x6 | x6 | x4 ||[M:4/4] x2 | %11
 E3/2 E/ E3/2 E/ E2 E3/2 E/ | A3/2 A/ A3/2 A/ A2 A3/2 G/ | F3/2 F/ F3/2 F/ F2 F3/2 F/ | %14
 G3/2 G/ G3/2 G/ G2 E3/2 D/ | C3/2 C/ C3/2 C/ C2 E3/2 E/ | A3/2 A/ A3/2 A/ A2 z2 | %17
 F3/2 F/ F3/2 F/ F2 E3/2 E/ | C3/2 C/ D3/2 D/ C2 |] %19
V:3
 [A,,A,]3/2 [A,,A,]/ | [A,,C]3 [A,,C] (3:2:2[A,,C]2 [A,,C] | [D,D]2 [D,D]2 [A,C]3/2 [A,C]/ | %3
w: |||
 [D,D]3 [D,D] (3:2:2[D,D]2 [D,B,] | [A,,A,]4 | [A,,A,]3/2 [A,,A,]/ | %6
w: |||
 [C,A,]3 [D,A,] (3:2:2[E,A,]2 [E,A,] | [A,,C]2 [A,,E]2 [E,E]3/2 [E,E]/ | %8
w: ||
 [E,E]3 [E,E] (3:2:2[E,E]2 [E,D] | [A,,A,C]4 ||[M:4/4] [A,,A,]3/2 [A,,A,]/ | %11
w: ||An- gels|
 [E,B,]3/2 [E,B,]/ [E,B,]3/2 [E,B,]/ [E,B,]2 [E,B,]3/2 [E,B,]/ | %12
w: swift- ly fly- ing now, ho- ly|
 [A,,C]3/2 [A,,C]/ [C,C]3/2 [E,C]/ [A,C]2 [A,,C]3/2 [C,C]/ | %13
w: mes- sen- gers of love, Sound- ing|
 [D,D]3/2 [D,D]/ [D,D]3/2 [D,D]/ [D,D]2 [D,D]3/2 [D,D]/ | %14
w: loud the might- y trump, call- ing|
 [E,E]3/2 [E,E]/ [G,E]3/2 [F,E]/ E2 [C,A,]3/2 [B,,A,]/ | %15
w: home the sons of God; Gath- ’ring|
 [A,,A,]3/2 [A,,A,]/ [A,,A,]3/2 [A,,A,]/ [A,,A,]2 [A,,A,]3/2 [A,,A,]/ | %16
w: home e- lect of God, through the|
 [A,,C]3/2 [A,,C]/ [C,C]3/2 [E,C]/ [A,C]2 [G,D]3/2 [F,C]/ | %17
w: dear Re- deem- er’s blood, Sanc- ti-|
 [D,D]3/2 [D,D]/ [D,D]3/2 [D,D]/ [D,D]2 [E,C]3/2 [E,B,]/ | %18
w: fied in Je- sus’ blood, oh, the|
 [A,,A,]3/2 [A,,A,]/ [A,,B,]3/2 [A,,B,]/ [A,,A,]2 |] %19
w: blood, the pre- cious blood!|
V:4
 x2 | x6 | x6 | x6 | x4 | x2 | x6 | x6 | x6 | x4 ||[M:4/4] x2 | x8 | x8 | x8 | z4 (E,3/2 D,/) z2 | %15
 x8 | x8 | x8 | x6 |] %19

